X: 771
T: the Old Bog Ground   #2
R: reel
%S: s:2 b:16(5+5)
B: Francis O'Neill: "The Dance Music of Ireland" (1907) #771
Z: Frank Nordberg - http://www.musicaviva.com
F: http://www.musicaviva.com/abc/tunes/ireland/oneill-1001/0771/oneill-1001-0771-1.abc
%m: ~n2 = o/4n/m/4n
N: Compacted via 2nd-part repeat with multiple endings [JC]
M: C|
L: 1/8
K: G
"^A"[|] (B/A/) !segno!\
|: G2(EG) DGBG | DGBG AGEA | G2(EG) DGBc | dBAc (BG)G2 H "^B" :: Bd (3.d.d.d ec-~c2 |
| dBGB AGED |1 Bd (3.d.d.d (ef)ge | dBAc (BG)G2 :|2 Bdef gage | dBAc BGA!segno!F |]
